public/svgs/twin/anatomy-m2-2.svg

<svg width="100%" height="100%" viewBox="0 0 32 32" fill="none" xmlns="http://www.w3.org/2000/svg">
<path d="M12.5903 20.6453C12.5903 20.6453 7.61746 20.9549 5.69386 25.3453C5.69386 25.3453 4.32635 29.8427 2.64076 19.1036C2.64076 19.1036 0.686358 4.71549 11.6287 5.99678C11.6287 5.99678 16.3854 6.26053 17.1044 9.18766L17.096 9.79021L17.1184 10.0237C17.1184 10.0237 14.6964 15.8007 14.6046 19.2245C14.6046 19.2245 13.9539 20.8037 12.5903 20.6452M18.0715 18.8505C16.4094 19.3287 15.6439 18.8958 15.9155 16.8826C16.3378 13.7656 16.7191 10.8262 18.5027 9.38645C21.4926 6.97062 25.7861 8.44005 29.3499 9.26213C33.4648 10.2108 25.8555 16.6037 18.0715 18.8505Z" fill="current"/>
</svg>

<svg xmlns="http://www.w3.org/2000/svg" fill="none" viewBox="0 0 32 32"><path fill="current" d="M12.59 20.645s-4.973.31-6.896 4.7c0 0-1.368 4.498-3.053-6.241 0 0-1.955-14.389 8.988-13.107 0 0 4.756.264 5.475 3.19l-.008.603.022.234s-2.422 5.777-2.513 9.2c0 0-.651 1.58-2.015 1.421m5.482-1.794c-1.663.478-2.428.045-2.156-1.968.422-3.117.803-6.057 2.587-7.497 2.99-2.415 7.283-.946 10.847-.124 4.115.949-3.495 7.342-11.279 9.589"/></svg>
